X: 1662
T: Sana Dün Bir Tepeden Baktım
C: Münir Nurettin Selçuk
O: Turkey
F: http://compmusic.upf.edu/node/140
N: hicaz--sarki--semai--sana_dun--munir_nurettin_selcuk
N: makam= hicaz
N: form= sarki
N: usul= semai = 3/4
M: 3/4
L: 1/16
K: C _7/8B ^f ^c 
Q: 1/4=60
%%MIDI tuningsystem comma53
d12  | A12  | .d2.d2 d4 A4  | d2=f2 e4 c4  | \
w:  ARANAĞME  |   |   |   | 
c2e2 d4 B4  | B2d2 c3B A4  | A2.d2 .d4 A4  | 
w:   |   |   | 
d2=f2 e3d c4  | c2e2 d3c B4  | B2d2 c3B A4  | \
w:   |   |   | 
(3A2B2c2 A8  | z4 (3A2B2c2 A4  | 
w:   |   | 
G2A2 A4 B2d2  | c2B2 B2A2 A4  | (3A2B2c2 A4 G2A2  | \
w:  SESLERLE NİNNİ  |   |  SAZ  | 
A4 B2d2 c2B2  | 
w:  SESLERLE NİNNİ  | 
B2A2 A4 (3A2B2c2  | d12  | d6(3edc d4  | \
w:   |   |  Ah   | 
(3edcd4(3edc d4  | c4 dcBA GABc  | 
w:   |   | 
d4 c4 dcBA  | GABc d8  | .d2.d2 .d4 A4  | \
w:   |   |  sa na  dün  bir   | 
d2=f2 e3d c4  | c2d2 e4 d2c2  | 
w:  te pe den  *  bak  |  tım_ a zîz_  | 
B3A B2c2 A4  | A2z2 B2c2 A4  | c3d .e4 .e4  | \
w:  İs *  tan *  bul    |  *  SAZ  |  Gör me dim  gez  | 
e2=fe d4 f4  | =f2fe e3d d4  | 
w:  me di *  ğim  sev  |  me di *  ğim  *  hiç  | 
c2ed d6z2  | e3f g3f g3f  | e2f2 a3g g3f  | \
w:  bir  *  *  yer    |  Öm rüm_ ol *  duk  |  ça  gö nül  *  tah  | 
f2fe d4 e4  | 
w:  tı ma  *  key fin  | 
f2ag g8  | z4 gfef g4  | e3f a3g g3f  | \
w:  ce  ku *  rul    |  SAZ  |  Sa de  bir  *  sem  | 
e2g2 =f3e d2e2  | 
w:  ti ni  sev *  mek   | 
dec4z2 e3d  | d3c cBAB c4  | c2z2 c3/2B/AB c4  | \
w:  bi *  le  bir   |  öm *  re  *  de *  ğer   |  *  SAZ  | 
d3d d3c B2A2  | 
w:  Sa de  bir  *  sem  | 
B2c2 d3c B2c2  | BcB6 z4  | e3d d3c c3B  | \
w:  ti ni  sev *  mek   |  bi *  le   |  bir  *  öm  | 
B2Bc A4 (3c2B2c2  | 
w:  re  de *  ğer  SAZ  | 
A4 (3c2B2c2 A4  | (3e2c2B2 A2a2 ^g2a2  | \
w:   |   | 
=f2a2 d2a2 a4  | .a2.a2 .a4 .a4  | 
w:  *  *  *  *  Ah   |  ni ce  rev nak  | 
a2=b2 a4 ^g4  | a2=b2 =c'3b a3^g  | =f3^g a6z2  | \
w:  lı  şe hir ler   |  gö rü lür  *  dün  |  ya *  da    | 
a^g=fg a4 z4  | a3a a3g _1/4b2ag  | 
w:  SAZ  |  Lâ kin_ ef *  sun  | 
.g2.g2 g3f g3f  | g2a2 _1/4b3a a3g  | \
w:  lu  gü zel *  lik  |  le ri  sen *  sin   | 
agf^e f6z2  | e2f2 a4 g2=f2  | 
w:  ya *  ra *  tan   |  Ya şa mış tır   | 
z2g2 e4 z4  | g3=f e6z2  | d2e2 ^1/4f4 e2d2  | \
w:  de rim   |  en  *  hoş   |  ve  u zun   | 
c4 d3e e4  | e4 edcd e4  | 
w:  rü ya *  da    |  *  SAZ  | 
e3f a3g g3f  | e2f2 g6z2  | e3d e2g2 =f3e  | \
w:  Sen de  çok  *  yıl   |  ya şa yan   |  sen *  de  ö len   | 
g=fed c2de c4  | 
w:  sen *  *  *  de  ya *  tan    | 
c4 edcd c4  | d3d a4 g2=f2  | e2g2 ^1/4f6e2  | \
w:  *  SAZ  |  Sen de  çok  yıl   |  ya şa yan   | 
g=fed c2de c4  | 
w:  sen *  *  *  de  ö *  len   | 
e4 d2c2 B3A  | B2c2 A8  | z4 (3c2B2c2 A4  | \
w:  sen  |  de  ya tan    |  SAZ  | 
(3c2B2c2 A4 G2A2  | A4 B2d2 c2B2  | 
w:  *  *  *  *  SESLERLE NİNNİ  |   | 
B2A2 A4 (3c2B2c2  | A4 G2A2 A4  | B2d2 c2B2 B2A2  | \
w:  *  *  *  SAZ  |  *  SESLERLE NİNNİ  |   | 
A4 (3A2B2c2 d4  | 
w:   | 
d12  | d4 (3edcd4(3edc  | d4 (3edcd2 c4  | \
w:   |  Ah   |   | 
dcBA GABc d4  | 
w:   | 
c4 dcBA GABc  | d12  | d2d2 d4 A4  | d2=f2 e3d c4  | \
w:   |   |  sa na  dün  bir   |  te pe den  *  bak  | 
c2d2 e4 d2c2  | 
w:  tım_ a zîz_  | 
B3A B2c2 A4  | A12  | z2c2 e4 d2c2  | B3A B2c2 A4  | \
w:  İs *  tan *  bul    |   |  a zîz_  |  İs *  tan *  bul    | 
A8 (3c2B2c2  | A4 (3c2B2c2 A4  | 
w:  *  SAZ  |   | 
|


